rospo-icon-theme-classic-common/22x22/places/folder-yellow-script.svg

<svg height="22" width="22" xmlns="http://www.w3.org/2000/svg"><rect height="12" opacity=".2" rx="1" width="20" x="1" y="8.5"/><path d="m1 16c0 .554.446 1 1 1h18c .554 0 1-.446 1-1v-11c0-.554-.446-1-1-1h-10v-1c0-.554-.446-1-1-1h-7c-.554 0-1 .446-1 1" fill="#b58f1b"/><rect height="12" opacity=".2" rx="1" width="20" x="1" y="7.5"/><rect fill="#e4e4e4" height="8" rx="1" width="16" x="3" y="6"/><rect fill="#e2b322" height="12" rx="1" width="20" x="1" y="8"/><path d="m2 2c-.554 0-1 .446-1 1v .5c0-.554.446-1 1-1h7c .554 0 1 .446 1 1v-.5c0-.554-.446-1-1-1zm8 2v .5h10c .554 0 1 .446 1 1v-.5c0-.554-.446-1-1-1z" fill="#fff" opacity=".1"/><g fill="#4f3e0c"><path d="m12 16h4v1h-4z"/><path d="m8 10h1v7h-1z"/><path d="m7.5 11c-.83 0-1.5.67-1.5 1.5s.67 1.5 1.5 1.5h1.5.5c.28 0 .5.22.5.5s-.22.51-.5.5h-.5-1.5-1.41c.21.58.76 1 1.41 1h1.5.5c.83 0 1.5-.67 1.5-1.5s-.67-1.5-1.5-1.5h-.5-1.5c-.28 0-.5-.22-.5-.5s.22-.5.5-.5h1.5.5 1.41c-.21-.58-.76-1-1.41-1h-.5z"/></g></svg>

<svg xmlns="http://www.w3.org/2000/svg" width="22" height="22" version="1">
 <rect style="opacity:0.2" width="20" height="12" x="1" y="8.5" rx="1" ry="1"/>
 <path style="fill:#b58f1b" d="M 1,16 C 1,16.554 1.446,17 2,17 H 20 C 20.554,17 21,16.554 21,16 V 5 C 21,4.446 20.554,4 20,4 H 10 V 3 C 10,2.446 9.554,2 9,2 H 2 C 1.446,2 1,2.446 1,3"/>
 <rect style="opacity:0.2" width="20" height="12" x="1" y="7.5" rx="1" ry="1"/>
 <rect style="fill:#dcdcdc" width="16" height="8" x="3" y="6" rx="1" ry="1"/>
 <rect style="fill:#e2b322" width="20" height="12" x="1" y="8" rx="1" ry="1"/>
 <path style="opacity:0.1;fill:#ffffff" d="M 2,2 C 1.446,2 1,2.446 1,3 V 3.5 C 1,2.946 1.446,2.5 2,2.5 H 9 C 9.554,2.5 10,2.946 10,3.5 V 3 C 10,2.446 9.554,2 9,2 Z M 10,4 V 4.5 H 20 C 20.554,4.5 21,4.946 21,5.5 V 5 C 21,4.446 20.554,4 20,4 Z"/>
 <g style="fill:#4f3e0c">
  <path d="M 12,16 H 16 V 17 H 12 Z"/>
  <rect width="1" height="7" x="8" y="10"/>
  <path d="M 7.5,11 C 6.67,11 6,11.67 6,12.5 6,13.33 6.67,14 7.5,14 H 9 9.5 C 9.78,14 10,14.22 10,14.5 10,14.78 9.78,15.01 9.5,15 H 9 7.5 6.09 C 6.3,15.58 6.85,16 7.5,16 H 9 9.5 C 10.33,16 11,15.33 11,14.5 11,13.67 10.33,13 9.5,13 H 9 7.5 C 7.22,13 7,12.78 7,12.5 7,12.22 7.22,12 7.5,12 H 9 9.5 10.91 C 10.7,11.42 10.15,11 9.5,11 H 9 Z"/>
 </g>
</svg>
